X:57
T:Nous n'irons plus au bois
R:Chanson
O:France
B:Le livre des Chansons (Henri Davenson) n°57
Z:<anamnese@caramail.com> -- http://anamnese.fr.st
M:2/4
L:1/8
Q:1/4=90
K:F
z F A B | c2 d2 | c>B A c | B2 A-G | F F A B |\
c2 d2 | c>B A c | B2 A-G | F2-F z ||
F F F G | F2 C z | F F F G | F C c | A2 c2 | A B c B | G F E2 | F2 z2 ||
W:Nous n'irons plus aux bois : les lauriers sont coupés.
W:La belle que voilà, ira les ramasser. /.../

